www/assets/icons/border_clear.svg

<svg xmlns="http://www.w3.org/2000/svg" width="24" height="24" viewBox="0 0 24 24" fill='currentColor'><path d="M7 5h2V3H7zm0 8h2v-2H7zm0 8h2v-2H7zm4-4h2v-2h-2zm0 4h2v-2h-2zm-8 0h2v-2H3zm0-4h2v-2H3zm0-4h2v-2H3zm0-4h2V7H3zm0-4h2V3H3zm8 8h2v-2h-2zm8 4h2v-2h-2zm0-4h2v-2h-2zm0 8h2v-2h-2zm0-12h2V7h-2zm-8 0h2V7h-2zm8-6v2h2V3zm-8 2h2V3h-2zm4 16h2v-2h-2zm0-8h2v-2h-2zm0-8h2V3h-2z"/></svg>

<svg width="24" height="24" viewBox="0 0 24 24" xmlns="http://www.w3.org/2000/svg" fill='currentColor'><path d="M7 5H9V3H7V5ZM7 13H9V11H7V13ZM7 21H9V19H7V21ZM11 17H13V15H11V17ZM11 21H13V19H11V21ZM3 21H5V19H3V21ZM3 17H5V15H3V17ZM3 13H5V11H3V13ZM3 9H5V7H3V9ZM3 5H5V3H3V5ZM11 13H13V11H11V13ZM19 17H21V15H19V17ZM19 13H21V11H19V13ZM19 21H21V19H19V21ZM19 9H21V7H19V9ZM11 9H13V7H11V9ZM19 3V5H21V3H19ZM11 5H13V3H11V5ZM15 21H17V19H15V21ZM15 13H17V11H15V13ZM15 5H17V3H15V5Z"/></svg>
